X: 1
T: The Cat In The Corner
R: jig
M: 6/8
L: 1/8
K: Dmix
|:D|FEF DFA| dAF AFD | (3 DEF E CEG| cGE CEG|
~F3 DFA| dAF AFD |GBG EFG|AFD D2:|
|:e|fdd ~d3| afd def| ecc ~c3|
[1 gec ceg|fdd ~d3| afd def|gfg eag| fdd d2:|
[2 gec efg|afa geg|fdf e^cA|GBG EFG|AFD D2 ||


Tune 3867	Setting 16785

